svg/fluentui-system-icons/ic_fluent_document_text_clock_24_regular.svg

<svg width="24" height="24" viewBox="0 0 24 24" fill="none" xmlns="http://www.w3.org/2000/svg">
<path d="M11.1904 13C10.5771 12.3609 9.83438 11.8468 9.0044 11.5H15.25C15.6642 11.5 16 11.8358 16 12.25C16 12.6642 15.6642 13 15.25 13H11.1904ZM12.1304 14.25C12.4002 14.7165 12.6138 15.2196 12.7617 15.75H15.25C15.6642 15.75 16 15.4142 16 15C16 14.5858 15.6642 14.25 15.25 14.25H12.1304ZM13 17.5C13 17.8401 12.9739 18.174 12.9236 18.5H15.25C15.6642 18.5 16 18.1642 16 17.75C16 17.3358 15.6642 17 15.25 17H12.9811C12.9936 17.165 13 17.3318 13 17.5ZM5.5 4C5.5 3.725 5.724 3.5 6 3.5H12V8C12 9.104 12.896 10 14 10H18.5V20C18.5 20.275 18.276 20.5 18 20.5H12.2678C11.9806 21.051 11.6168 21.5557 11.1904 22H18C19.104 22 20 21.104 20 20V9.828C20 9.298 19.789 8.789 19.414 8.414L13.585 2.586C13.57 2.57105 13.5531 2.55808 13.5363 2.5452C13.5238 2.53567 13.5115 2.5262 13.5 2.516C13.429 2.452 13.359 2.389 13.281 2.336C13.2557 2.31894 13.2281 2.30548 13.2005 2.29207C13.1845 2.28426 13.1685 2.27647 13.153 2.268C13.1363 2.25859 13.1197 2.24897 13.103 2.23933C13.0488 2.20797 12.9944 2.17648 12.937 2.152C12.74 2.07 12.528 2.029 12.313 2.014C12.2933 2.01274 12.2738 2.01008 12.2542 2.00741C12.2271 2.00371 12.1999 2 12.172 2H6C4.896 2 4 2.896 4 4V11.4982C4.47417 11.3004 4.97679 11.1572 5.5 11.0764V4ZM17.378 8.5H14C13.724 8.5 13.5 8.275 13.5 8V4.621L17.378 8.5ZM12 17.5C12 14.4624 9.53757 12 6.5 12C3.46243 12 1 14.4624 1 17.5C1 20.5376 3.46243 23 6.5 23C9.53757 23 12 20.5376 12 17.5ZM6.5 17.5001H8.5C8.77614 17.5001 9 17.7239 9 18.0001C9 18.2762 8.77614 18.5001 8.5 18.5001H6C5.72386 18.5001 5.5 18.2762 5.5 18.0001L5.5 17.9985L5.5 14.9999C5.5 14.7238 5.72386 14.4999 6 14.4999C6.27614 14.4999 6.5 14.7238 6.5 14.9999L6.5 17.5001Z" fill="#212121"/>
</svg>

<svg xmlns="http://www.w3.org/2000/svg" width="24" height="24"><path d="M11.19 13a6.511 6.511 0 0 0-2.186-1.5h6.246a.75.75 0 0 1 0 1.5h-4.06Zm.94 1.25c.27.466.484.97.632 1.5h2.488a.75.75 0 0 0 0-1.5h-3.12ZM13 17.5c0 .34-.026.674-.076 1h2.326a.75.75 0 0 0 0-1.5h-2.269c.013.165.019.332.019.5ZM5.5 4a.5.5 0 0 1 .5-.5h6V8a2 2 0 0 0 2 2h4.5v10a.5.5 0 0 1-.5.5h-5.732A6.518 6.518 0 0 1 11.19 22H18a2 2 0 0 0 2-2V9.828a2 2 0 0 0-.586-1.414l-5.829-5.828a.491.491 0 0 0-.049-.04.63.63 0 0 1-.036-.03 2.072 2.072 0 0 0-.219-.18.652.652 0 0 0-.08-.044l-.048-.024-.05-.029c-.054-.031-.109-.063-.166-.087a1.977 1.977 0 0 0-.624-.138.56.56 0 0 1-.059-.007.605.605 0 0 0-.082-.007H6a2 2 0 0 0-2 2v7.498a6.451 6.451 0 0 1 1.5-.422V4Zm11.878 4.5H14a.5.5 0 0 1-.5-.5V4.621L17.378 8.5ZM12 17.5a5.5 5.5 0 1 0-11 0 5.5 5.5 0 0 0 11 0Zm-5.5 0h2a.5.5 0 1 1 0 1H6a.5.5 0 0 1-.5-.5v-3a.5.5 0 0 1 1 0v2.5Z"/></svg>
